X:499
T:Sword Dance,The. (p)1702.PLFD.499
M:4/4
L:1/4
Q:1/2=120
S:Playford, Dancing Master,Supp.to 11th Ed.,1702.
O:England
Z:Chris Partington.
K:C
B/c/|dDFA|dE2B/c/|dDFA|dD2:|
|:B/c/|df2e/d/|ce2d/c/|df2e/c/|dD2:|
